dist/assets/img/icon/trash.svg

<svg width="34" height="34" viewBox="0 0 34 34" fill="none" xmlns="http://www.w3.org/2000/svg">
<g clip-path="url(#clip0)">
<path fill-rule="evenodd" clip-rule="evenodd" d="M7 31C7 29.8954 7.89543 29 9 29C10.1046 29 11 29.8954 11 31C11 32.1046 10.1046 33 9 33C7.89543 33 7 32.1046 7 31Z" fill="black"/>
<path fill-rule="evenodd" clip-rule="evenodd" d="M18 31C18 29.8954 18.8954 29 20 29C21.1046 29 22 29.8954 22 31C22 32.1046 21.1046 33 20 33C18.8954 33 18 32.1046 18 31Z" fill="black"/>
<path fill-rule="evenodd" clip-rule="evenodd" d="M0 11C0 10.4477 0.447715 10 1 10H5C5.47663 10 5.88701 10.3364 5.98055 10.8037L6.82043 15H23C23.298 15 23.5805 15.1329 23.7705 15.3626C23.9605 15.5922 24.0381 15.8946 23.9823 16.1873L22.3809 24.5848C22.2437 25.2754 21.868 25.8958 21.3195 26.3373C20.7738 26.7766 20.0916 27.011 19.3914 27H9.68864C8.98837 27.011 8.3062 26.7766 7.76048 26.3373C7.21225 25.8959 6.83664 25.2759 6.69933 24.5857C6.69927 24.5854 6.69939 24.5859 6.69933 24.5857L5.02879 16.2392C5.02201 16.2116 5.01638 16.1835 5.01195 16.1551L4.18032 12H1C0.447715 12 0 11.5523 0 11ZM7.22073 17L8.66084 24.1952C8.70656 24.4254 8.83179 24.6322 9.01461 24.7793C9.19743 24.9265 9.42619 25.0047 9.66084 25.0002L9.68 25H19.4L19.4192 25.0002C19.6538 25.0047 19.8826 24.9265 20.0654 24.7793C20.2474 24.6328 20.3723 24.4273 20.4185 24.1984L21.7913 17H7.22073Z" fill="black"/>
</g>
<circle cx="24" cy="10" r="10" fill="#EC1F46"/>
<path d="M26.45 12.15V13H21.78V12.23L24.23 9.54C24.5433 9.19333 24.77 8.88 24.91 8.6C25.0567 8.31333 25.13 8.03 25.13 7.75C25.13 7.39 25.0267 7.11667 24.82 6.93C24.6133 6.73667 24.3133 6.64 23.92 6.64C23.26 6.64 22.6 6.9 21.94 7.42L21.57 6.66C21.85 6.4 22.2067 6.19333 22.64 6.04C23.0733 5.88 23.51 5.8 23.95 5.8C24.63 5.8 25.1667 5.97 25.56 6.31C25.96 6.65 26.16 7.11 26.16 7.69C26.16 8.10333 26.07 8.49667 25.89 8.87C25.71 9.23667 25.41 9.64667 24.99 10.1L23.09 12.15H26.45Z" fill="white"/>
<defs>
<clipPath id="clip0">
<rect width="24" height="24" fill="white" transform="translate(0 10)"/>
</clipPath>
</defs>
</svg>

<svg width="34" height="34" fill="none" xmlns="http://www.w3.org/2000/svg"><g clip-path="url(#clip0)" fill-rule="evenodd" clip-rule="evenodd" fill="#000"><path d="M7 31a2 2 0 114 0 2 2 0 01-4 0zM18 31a2 2 0 114 0 2 2 0 01-4 0zM0 11a1 1 0 011-1h4a1 1 0 01.98.804L6.82 15H23a1 1 0 01.982 1.187l-1.601 8.398A3 3 0 0119.39 27H9.69a3 3 0 01-2.99-2.414l-1.67-8.347a.997.997 0 01-.017-.084L4.18 12H1a1 1 0 01-1-1zm7.22 6l1.44 7.195a1 1 0 001 .805h9.76a1 1 0 00.998-.802L21.792 17H7.221z"/></g><circle cx="24" cy="10" r="10" fill="#EC1F46"/><path d="M26.45 12.15V13h-4.67v-.77l2.45-2.69c.313-.347.54-.66.68-.94.147-.287.22-.57.22-.85 0-.36-.103-.633-.31-.82-.207-.193-.507-.29-.9-.29-.66 0-1.32.26-1.98.78l-.37-.76c.28-.26.637-.467 1.07-.62.433-.16.87-.24 1.31-.24.68 0 1.217.17 1.61.51.4.34.6.8.6 1.38 0 .413-.09.807-.27 1.18-.18.367-.48.777-.9 1.23l-1.9 2.05h3.36z" fill="#fff"/><defs><clipPath id="clip0"><path fill="#fff" transform="translate(0 10)" d="M0 0h24v24H0z"/></clipPath></defs></svg>
